icons/linear-ele-office-folder.svg

<svg xmlns="http://www.w3.org/2000/svg" width="32px" height="32px" viewBox="0 0 32 32" version="1.1">
    <title>linear-ele-office-folder</title>
    <g id="linear-ele-office-folder" stroke-width="1" fill-rule="evenodd">
        <path d="M12,4 C12.2652165,4 12.5195704,4.10535684 12.7071068,4.29289322 L16.415,8 L29,8 C29.5128358,8 29.9355072,8.38604019 29.9932723,8.88337887 L30,9 L30,27 C30,27.5522847 29.5522847,28 29,28 L3,28 C2.44771525,28 2,27.5522847 2,27 L2,5 C2,4.44771525 2.44771525,4 3,4 L12,4 Z M11.585,6 L4,6 L4,26 L28,26 L28,10 L16,10 C15.7789863,10 15.565516,9.92683553 15.3919705,9.79391937 L15.2928932,9.70710678 L11.585,6 Z" id="&#24418;&#29366;" fill-rule="nonzero" />
    </g>
</svg>

<svg xmlns="http://www.w3.org/2000/svg" viewBox="0 0 32 32"><path fill="currentColor" d="M12 4a1 1 0 0 1 .707.293L16.415 8H29a1 1 0 0 1 .993.883L30 9v18a1 1 0 0 1-1 1H3a1 1 0 0 1-1-1V5a1 1 0 0 1 1-1zm-.415 2H4v20h24V10H16a1 1 0 0 1-.608-.206l-.1-.087z"/></svg>
